apps/scalable/notification/notification.svg

<svg xmlns="http://www.w3.org/2000/svg" style="isolation:isolate" width="256" height="256"><defs><filter id="a" width="270.648" height="254.338" x="-7.32" y="2.95" filterUnits="userSpaceOnUse"><feGaussianBlur xmlns="http://www.w3.org/2000/svg" in="SourceGraphic" stdDeviation="4.294"/><feOffset xmlns="http://www.w3.org/2000/svg" dy="4" result="pf_100_offsetBlur"/><feFlood xmlns="http://www.w3.org/2000/svg" flood-opacity=".4"/><feComposite xmlns="http://www.w3.org/2000/svg" in2="pf_100_offsetBlur" operator="in" result="pf_100_dropShadow"/><feBlend xmlns="http://www.w3.org/2000/svg" in="SourceGraphic" in2="pf_100_dropShadow"/></filter></defs><path fill="#CCC" d="M165.685 11.947c74.055 0 84.639 10.557 84.639 84.544v59.251c0 73.986-10.584 84.543-84.639 84.543h-75.37c-74.055 0-84.639-10.557-84.639-84.543V96.491c0-73.987 10.584-84.544 84.639-84.544h75.37z" filter="url(#a)"/><path fill="#FFF" d="M5.676 126.116v29.626c0 73.986 10.584 84.543 84.639 84.543h75.37c74.055 0 84.639-10.557 84.639-84.543v-29.626H5.676z" opacity=".1"/><path fill="#FFF" d="M128 11.947v228.338h37.685c74.055 0 84.639-10.557 84.639-84.543V96.491c0-73.987-10.584-84.544-84.639-84.544H128z" opacity=".2"/><defs><filter id="b" width="132.192" height="134.295" x="77.39" y="75.04" filterUnits="userSpaceOnUse"><feGaussianBlur xmlns="http://www.w3.org/2000/svg" stdDeviation="4.294"/></filter></defs><path fill="#382B37" d="M136.86 85.039c.194 1.725.647 3.396.647 5.173 0 25.713-20.845 46.558-46.559 46.558-1.217 0-2.362-.232-3.556-.323v22.957a18.712 18.712 0 0 0 18.753 18.752h15.986l20.692 21.177 21.339-21.177h16.669a18.712 18.712 0 0 0 18.753-18.753v-55.611a18.712 18.712 0 0 0-18.753-18.753H136.86z" opacity=".4" filter="url(#b)"/><defs><filter id="c" width="92.424" height="92.424" x="44.71" y="44" filterUnits="userSpaceOnUse"><feGaussianBlur xmlns="http://www.w3.org/2000/svg" stdDeviation="4.294"/></filter></defs><path fill="#382B37" d="M90.923 54c-20 0-36.212 16.213-36.212 36.212 0 19.999 16.212 36.212 36.212 36.212 19.999 0 36.212-16.213 36.212-36.212C127.135 70.213 110.922 54 90.923 54zm-5.497 10.346h10.669l-.647 14.226a2.127 2.127 0 0 0 0 .647 2.177 2.177 0 0 0 0 .323 2.066 2.066 0 0 0 1.294 1.293c.107.009.215.009.323 0 .214.034.432.034.646 0 .214.034.433.034.647 0 .119-.095.227-.203.323-.323l11.962-7.759 5.173 9.376-12.61 6.466a2.177 2.177 0 0 0-.323 0 2.093 2.093 0 0 0-.322.323 2.05 2.05 0 0 0-.323.969 2.065 2.065 0 0 0 0 .647 1.935 1.935 0 0 0 0 .323c.068.233.178.452.323.647.095.119.203.227.322.323.096.118.204.227.323.322l12.933 6.467-5.496 9.376-11.963-8.08a1.935 1.935 0 0 0-.323 0 2.052 2.052 0 0 0-.646-.323 2.065 2.065 0 0 0-.647 0 2.064 2.064 0 0 0-1.293.969 2.099 2.099 0 0 0-.323.323 2.177 2.177 0 0 0 0 .323 2.058 2.058 0 0 0 0 .646l.647 14.228h-10.67l.97-14.227a2.061 2.061 0 0 0-.323-.969 2.03 2.03 0 0 0-.323-.646 2.03 2.03 0 0 0-.646-.323 2.07 2.07 0 0 0-.647-.324 2.07 2.07 0 0 0-1.292.324l-12.286 8.083-5.174-9.376 12.933-6.467c.12-.095.228-.204.323-.323.119-.096.228-.204.323-.323.145-.194.254-.414.323-.647a2.163 2.163 0 0 0 0-.322 2.065 2.065 0 0 0 0-.647 2.177 2.177 0 0 0 0-.323 2.062 2.062 0 0 0-.323-.646 2.014 2.014 0 0 0-.323-.323 1.935 1.935 0 0 0-.323 0l-12.933-6.466 5.174-9.377 12.286 7.76c.095.119.203.227.323.323.214.034.432.034.646 0 .215.034.433.034.647 0 .107.008.215.008.323 0 .119-.096.227-.204.322-.323.12-.095.228-.204.323-.323.12-.095.228-.204.323-.323a1.935 1.935 0 0 0 0-.323c.145-.194.254-.413.323-.646a2.177 2.177 0 0 0 0-.323L85.463 64.3l-.037.046z" opacity=".4" filter="url(#c)"/><path fill="#37A6E6" d="M136.86 85.039c.194 1.725.647 3.396.647 5.173 0 25.713-20.845 46.558-46.559 46.558-1.217 0-2.362-.232-3.556-.323v22.957a18.712 18.712 0 0 0 18.753 18.752h15.986l20.692 21.177 21.339-21.177h16.669a18.712 18.712 0 0 0 18.753-18.753v-55.611a18.712 18.712 0 0 0-18.753-18.753H136.86z"/><path fill="#ED3146" d="M90.923 54c-20 0-36.212 16.213-36.212 36.212 0 19.999 16.212 36.212 36.212 36.212 19.999 0 36.212-16.213 36.212-36.212C127.135 70.213 110.922 54 90.923 54zm-5.497 10.346h10.669l-.647 14.226a2.127 2.127 0 0 0 0 .647 2.177 2.177 0 0 0 0 .323 2.066 2.066 0 0 0 1.294 1.293c.107.009.215.009.323 0 .214.034.432.034.646 0 .214.034.433.034.647 0 .119-.095.227-.203.323-.323l11.962-7.759 5.173 9.376-12.61 6.466a2.177 2.177 0 0 0-.323 0 2.093 2.093 0 0 0-.322.323 2.05 2.05 0 0 0-.323.969 2.065 2.065 0 0 0 0 .647 1.935 1.935 0 0 0 0 .323c.068.233.178.452.323.647.095.119.203.227.322.323.096.118.204.227.323.322l12.933 6.467-5.496 9.376-11.963-8.08a1.935 1.935 0 0 0-.323 0 2.052 2.052 0 0 0-.646-.323 2.065 2.065 0 0 0-.647 0 2.064 2.064 0 0 0-1.293.969 2.099 2.099 0 0 0-.323.323 2.177 2.177 0 0 0 0 .323 2.058 2.058 0 0 0 0 .646l.647 14.228h-10.67l.97-14.227a2.061 2.061 0 0 0-.323-.969 2.03 2.03 0 0 0-.323-.646 2.03 2.03 0 0 0-.646-.323 2.07 2.07 0 0 0-.647-.324 2.07 2.07 0 0 0-1.292.324l-12.286 8.083-5.174-9.376 12.933-6.467c.12-.095.228-.204.323-.323.119-.096.228-.204.323-.323.145-.194.254-.414.323-.647a2.163 2.163 0 0 0 0-.322 2.065 2.065 0 0 0 0-.647 2.177 2.177 0 0 0 0-.323 2.062 2.062 0 0 0-.323-.646 2.014 2.014 0 0 0-.323-.323 1.935 1.935 0 0 0-.323 0l-12.933-6.466 5.174-9.377 12.286 7.76c.095.119.203.227.323.323.214.034.432.034.646 0 .215.034.433.034.647 0 .107.008.215.008.323 0 .119-.096.227-.204.322-.323.12-.095.228-.204.323-.323.12-.095.228-.204.323-.323a1.935 1.935 0 0 0 0-.323c.145-.194.254-.413.323-.646a2.177 2.177 0 0 0 0-.323L85.463 64.3l-.037.046z"/><g opacity=".4"><linearGradient id="d" x1=".517" x2=".517" y2="1"><stop offset="0%" stop-color="#fff"/><stop offset="12.5%" stop-opacity=".098" stop-color="#fff"/><stop offset="92.5%" stop-opacity=".098"/><stop offset="100%" stop-opacity=".498"/></linearGradient><path fill="none" stroke="url(#d)" stroke-linecap="round" stroke-linejoin="round" stroke-width="4.077" d="M165.685 11.947c74.055 0 84.639 10.557 84.639 84.544v59.251c0 73.986-10.584 84.543-84.639 84.543h-75.37c-74.055 0-84.639-10.557-84.639-84.543V96.491c0-73.987 10.584-84.544 84.639-84.544h75.37z" vector-effect="non-scaling-stroke"/></g></svg>

<svg xmlns="http://www.w3.org/2000/svg" style="isolation:isolate" width="256" height="256" viewBox="0 0 256 256">
 <defs>
  <filter id="xMlt4w6EZFkNnY0FaPP7NGt9C0lhZnyE" width="270.648" height="254.338" x="-7.32" y="2.95" filterUnits="userSpaceOnUse">
   <feGaussianBlur xmlns="http://www.w3.org/2000/svg" in="SourceGraphic" stdDeviation="4.294"/>
   <feOffset xmlns="http://www.w3.org/2000/svg" dx="0" dy="4" result="pf_100_offsetBlur"/>
   <feFlood xmlns="http://www.w3.org/2000/svg" flood-opacity=".4"/>
   <feComposite xmlns="http://www.w3.org/2000/svg" in2="pf_100_offsetBlur" operator="in" result="pf_100_dropShadow"/>
   <feBlend xmlns="http://www.w3.org/2000/svg" in="SourceGraphic" in2="pf_100_dropShadow" mode="normal"/>
  </filter>
 </defs>
 <g filter="url(#xMlt4w6EZFkNnY0FaPP7NGt9C0lhZnyE)">
  <path fill="#CCCCCC" d="M 165.685 11.947 C 239.74 11.947 250.324 22.504 250.324 96.491 L 250.324 155.742 C 250.324 229.728 239.74 240.285 165.685 240.285 L 90.315 240.285 C 16.26 240.285 5.676 229.728 5.676 155.742 L 5.676 96.491 C 5.676 22.504 16.26 11.947 90.315 11.947 L 165.685 11.947 Z"/>
 </g>
 <g opacity=".1">
  <path fill="#FFFFFF" d="M 5.676 126.116 L 5.676 155.742 C 5.676 229.728 16.26 240.285 90.315 240.285 L 165.685 240.285 C 239.74 240.285 250.324 229.728 250.324 155.742 L 250.324 126.116 L 5.676 126.116 Z"/>
 </g>
 <g opacity=".2">
  <path fill="#FFFFFF" d="M 128 11.947 L 128 240.285 L 165.685 240.285 C 239.74 240.285 250.324 229.728 250.324 155.742 L 250.324 96.491 C 250.324 22.504 239.74 11.947 165.685 11.947 L 128 11.947 Z"/>
 </g>
 <g>
  <defs>
   <filter id="37BGpQBYRGx0qmwOX9RHcGkcx8rq7BeR" width="132.192" height="134.295" x="77.39" y="75.04" filterUnits="userSpaceOnUse">
    <feGaussianBlur xmlns="http://www.w3.org/2000/svg" stdDeviation="4.294"/>
   </filter>
  </defs>
  <g opacity=".4" filter="url(#37BGpQBYRGx0qmwOX9RHcGkcx8rq7BeR)">
   <path fill="#382B37" d="M 136.86 85.039 C 137.054 86.764 137.507 88.435 137.507 90.212 C 137.507 115.925 116.662 136.77 90.948 136.77 C 89.731 136.77 88.586 136.538 87.392 136.447 L 87.392 159.404 C 87.392 169.792 95.756 178.156 106.145 178.156 L 122.131 178.156 L 142.823 199.333 L 164.162 178.156 L 180.831 178.156 C 191.22 178.156 199.584 169.792 199.584 159.403 L 199.584 103.792 C 199.584 93.403 191.22 85.039 180.831 85.039 L 136.86 85.039 Z"/>
  </g>
  <defs>
   <filter id="bcW4nOlLUf9jQBgpCwldfPcfQrdnVkFn" width="92.424" height="92.424" x="44.71" y="44" filterUnits="userSpaceOnUse">
    <feGaussianBlur xmlns="http://www.w3.org/2000/svg" stdDeviation="4.294"/>
   </filter>
  </defs>
  <g opacity=".4" filter="url(#bcW4nOlLUf9jQBgpCwldfPcfQrdnVkFn)">
   <path fill="#382B37" d="M 90.923 54 C 70.923 54 54.711 70.213 54.711 90.212 C 54.711 110.211 70.923 126.424 90.923 126.424 C 110.922 126.424 127.135 110.211 127.135 90.212 C 127.135 70.213 110.922 54 90.923 54 Z M 85.426 64.346 L 96.095 64.346 L 95.448 78.572 C 95.415 78.786 95.415 79.005 95.448 79.219 C 95.44 79.326 95.44 79.434 95.448 79.542 C 95.655 80.151 96.133 80.629 96.742 80.835 C 96.849 80.844 96.957 80.844 97.065 80.835 C 97.279 80.869 97.497 80.869 97.711 80.835 C 97.925 80.869 98.144 80.869 98.358 80.835 C 98.477 80.74 98.585 80.632 98.681 80.512 L 110.643 72.753 L 115.816 82.129 L 103.206 88.595 C 103.099 88.587 102.991 88.587 102.883 88.595 C 102.764 88.691 102.656 88.799 102.561 88.918 C 102.373 89.209 102.262 89.543 102.238 89.887 C 102.204 90.102 102.204 90.32 102.238 90.534 C 102.229 90.641 102.229 90.749 102.238 90.857 C 102.306 91.09 102.416 91.309 102.561 91.504 C 102.656 91.623 102.764 91.731 102.883 91.827 C 102.979 91.945 103.087 92.054 103.206 92.149 L 116.139 98.616 L 110.643 107.992 L 98.68 99.912 C 98.573 99.903 98.465 99.903 98.357 99.912 C 98.163 99.767 97.944 99.658 97.711 99.589 C 97.497 99.555 97.278 99.555 97.064 99.589 C 96.519 99.723 96.052 100.073 95.771 100.558 C 95.652 100.654 95.543 100.762 95.448 100.881 C 95.44 100.988 95.44 101.096 95.448 101.204 C 95.414 101.418 95.414 101.636 95.448 101.85 L 96.095 116.078 L 85.425 116.078 L 86.395 101.851 C 86.371 101.507 86.259 101.173 86.072 100.882 C 86.004 100.649 85.894 100.43 85.749 100.236 C 85.555 100.091 85.336 99.981 85.103 99.913 C 84.908 99.768 84.689 99.658 84.456 99.589 C 84.349 99.581 84.241 99.581 84.133 99.589 C 83.788 99.615 83.455 99.725 83.164 99.913 L 70.878 107.996 L 65.704 98.62 L 78.637 92.153 C 78.757 92.058 78.865 91.949 78.96 91.83 C 79.079 91.734 79.188 91.626 79.283 91.507 C 79.428 91.313 79.537 91.093 79.606 90.86 C 79.614 90.753 79.614 90.645 79.606 90.538 C 79.64 90.324 79.64 90.105 79.606 89.891 C 79.614 89.784 79.614 89.676 79.606 89.568 C 79.537 89.335 79.428 89.117 79.283 88.922 C 79.188 88.802 79.079 88.694 78.96 88.599 C 78.853 88.59 78.745 88.59 78.637 88.599 L 65.704 82.133 L 70.878 72.756 L 83.164 80.516 C 83.259 80.635 83.367 80.743 83.487 80.839 C 83.701 80.873 83.919 80.873 84.133 80.839 C 84.348 80.873 84.566 80.873 84.78 80.839 C 84.887 80.847 84.995 80.847 85.103 80.839 C 85.222 80.743 85.33 80.635 85.425 80.516 C 85.545 80.421 85.653 80.312 85.748 80.193 C 85.868 80.098 85.976 79.989 86.071 79.87 C 86.08 79.763 86.08 79.655 86.071 79.547 C 86.216 79.353 86.325 79.134 86.394 78.901 C 86.402 78.793 86.402 78.685 86.394 78.578 L 85.463 64.3 L 85.426 64.346 Z"/>
  </g>
  <path fill="#37A6E6" d="M 136.86 85.039 C 137.054 86.764 137.507 88.435 137.507 90.212 C 137.507 115.925 116.662 136.77 90.948 136.77 C 89.731 136.77 88.586 136.538 87.392 136.447 L 87.392 159.404 C 87.392 169.792 95.756 178.156 106.145 178.156 L 122.131 178.156 L 142.823 199.333 L 164.162 178.156 L 180.831 178.156 C 191.22 178.156 199.584 169.792 199.584 159.403 L 199.584 103.792 C 199.584 93.403 191.22 85.039 180.831 85.039 L 136.86 85.039 Z"/>
  <path fill="#ED3146" d="M 90.923 54 C 70.923 54 54.711 70.213 54.711 90.212 C 54.711 110.211 70.923 126.424 90.923 126.424 C 110.922 126.424 127.135 110.211 127.135 90.212 C 127.135 70.213 110.922 54 90.923 54 Z M 85.426 64.346 L 96.095 64.346 L 95.448 78.572 C 95.415 78.786 95.415 79.005 95.448 79.219 C 95.44 79.326 95.44 79.434 95.448 79.542 C 95.655 80.151 96.133 80.629 96.742 80.835 C 96.849 80.844 96.957 80.844 97.065 80.835 C 97.279 80.869 97.497 80.869 97.711 80.835 C 97.925 80.869 98.144 80.869 98.358 80.835 C 98.477 80.74 98.585 80.632 98.681 80.512 L 110.643 72.753 L 115.816 82.129 L 103.206 88.595 C 103.099 88.587 102.991 88.587 102.883 88.595 C 102.764 88.691 102.656 88.799 102.561 88.918 C 102.373 89.209 102.262 89.543 102.238 89.887 C 102.204 90.102 102.204 90.32 102.238 90.534 C 102.229 90.641 102.229 90.749 102.238 90.857 C 102.306 91.09 102.416 91.309 102.561 91.504 C 102.656 91.623 102.764 91.731 102.883 91.827 C 102.979 91.945 103.087 92.054 103.206 92.149 L 116.139 98.616 L 110.643 107.992 L 98.68 99.912 C 98.573 99.903 98.465 99.903 98.357 99.912 C 98.163 99.767 97.944 99.658 97.711 99.589 C 97.497 99.555 97.278 99.555 97.064 99.589 C 96.519 99.723 96.052 100.073 95.771 100.558 C 95.652 100.654 95.543 100.762 95.448 100.881 C 95.44 100.988 95.44 101.096 95.448 101.204 C 95.414 101.418 95.414 101.636 95.448 101.85 L 96.095 116.078 L 85.425 116.078 L 86.395 101.851 C 86.371 101.507 86.259 101.173 86.072 100.882 C 86.004 100.649 85.894 100.43 85.749 100.236 C 85.555 100.091 85.336 99.981 85.103 99.913 C 84.908 99.768 84.689 99.658 84.456 99.589 C 84.349 99.581 84.241 99.581 84.133 99.589 C 83.788 99.615 83.455 99.725 83.164 99.913 L 70.878 107.996 L 65.704 98.62 L 78.637 92.153 C 78.757 92.058 78.865 91.949 78.96 91.83 C 79.079 91.734 79.188 91.626 79.283 91.507 C 79.428 91.313 79.537 91.093 79.606 90.86 C 79.614 90.753 79.614 90.645 79.606 90.538 C 79.64 90.324 79.64 90.105 79.606 89.891 C 79.614 89.784 79.614 89.676 79.606 89.568 C 79.537 89.335 79.428 89.117 79.283 88.922 C 79.188 88.802 79.079 88.694 78.96 88.599 C 78.853 88.59 78.745 88.59 78.637 88.599 L 65.704 82.133 L 70.878 72.756 L 83.164 80.516 C 83.259 80.635 83.367 80.743 83.487 80.839 C 83.701 80.873 83.919 80.873 84.133 80.839 C 84.348 80.873 84.566 80.873 84.78 80.839 C 84.887 80.847 84.995 80.847 85.103 80.839 C 85.222 80.743 85.33 80.635 85.425 80.516 C 85.545 80.421 85.653 80.312 85.748 80.193 C 85.868 80.098 85.976 79.989 86.071 79.87 C 86.08 79.763 86.08 79.655 86.071 79.547 C 86.216 79.353 86.325 79.134 86.394 78.901 C 86.402 78.793 86.402 78.685 86.394 78.578 L 85.463 64.3 L 85.426 64.346 Z"/>
 </g>
 <g opacity=".4">
  <linearGradient id="_lgradient_180" x1=".517" x2=".517" y1="0" y2="1">
   <stop offset="0%" style="stop-color:rgb(255,255,255)"/>
   <stop offset="12.5%" stop-opacity=".098" style="stop-color:rgb(255,255,255)"/>
   <stop offset="92.5%" stop-opacity=".098" style="stop-color:rgb(0,0,0)"/>
   <stop offset="100%" stop-opacity=".498" style="stop-color:rgb(0,0,0)"/>
  </linearGradient>
  <path fill="none" stroke="url(#_lgradient_180)" stroke-linecap="round" stroke-linejoin="round" stroke-width="4.077" d="M 165.685 11.947 C 239.74 11.947 250.324 22.504 250.324 96.491 L 250.324 155.742 C 250.324 229.728 239.74 240.285 165.685 240.285 L 90.315 240.285 C 16.26 240.285 5.676 229.728 5.676 155.742 L 5.676 96.491 C 5.676 22.504 16.26 11.947 90.315 11.947 L 165.685 11.947 Z" vector-effect="non-scaling-stroke"/>
 </g>
</svg>
